X: 1
T: Afton Water
O: Scots Musical Museum p.400 #386
R: waltz
Z: 2014 John Chambers <jc:trillian.mit.edu>
S: Page from Concord Slow Scottish Session collection
M: 3/4
L: 1/8
K: G
D2 |\
"G"G2 B2 AG | "D7"AB c2 BA | "G"G2 B2 AG | "D7"G2 F2 D2 |\
"G"G2 B2 AG | "D7"AB "G"d2 "C"ge | "D7"d2 cB AB | "G"G4 :|
|: de |\
"F"=f2 gf ed | "C"d2 e2 g2 | "G"g2B2 AG | "D7"G2 F2D2 |\
"G"G2 B2 AG | "D7"AB "G"d2 "C"ge | "D7"d2 cB AB | "G"G4 :|
